X: 1
T: Mind Yourself Of The Turkeycock Or The Turkeycock Will Bite You
M: 6/8
L: 1/8
R: jig
K: Gmaj
G2A |: B2B BAB | d2B G2A | B>Bd g2e | d2B G2A | B2B BAB |
d2B G2A | B>BB AGA |1 G3 G2A :|2 G3 G2d ||
g2g g2e |d2B B2d | e2a a2g | a2g e2d |
g2g g2e | d2B B2d |e2e ede | g3 g2d |
g2g g2e | d2c c2d | e2a a2g |a2g e2d |
g2g g2e | d2B B2d | d2d edd | g3 g2 G |
